X: 1
T: David D MacKenzie Of Sallachy
M: 4/4
L: 1/8
R: reel
K: Dmaj
AB/c/ | d3 c d2 e2 | d2 F2 G2 A2 | c3 B B3 A | A2 F2 E2 F2 |
G3 A B2 G2 | F3 G A2 F2 | F E3 E3 F | E6 AB/c/ |
d3 c d2 e2 | d2 F2 G2 A2 | c3 B B2 A2 | A2 F2 E2 D2 |
B,3 G A,3 F | G,3 E A,3 B | A F3 E3 D | D6 AB/c/ |
d3 e f2 d2 | c2 e2 A2 c2 | B3 c d2 B2 | A2 D2 F2 A2 |
G3 A B2 G2 | F3 G A2 F2 | F E3 E3 F | E6 AB/c/ |
d3 e f2 d2 | c2 a2 A2 =c2 | B3 c d2 B2 | A2 d2 D2 F2 |
G3 A B2 G2 | F2 A2 D2 F2 | F3 E E3 D | D6 |]
